www/assets/icons/sports_score.svg

<svg xmlns="http://www.w3.org/2000/svg" width="24" height="24" viewBox="0 0 24 24" fill='currentColor'><path d="M11 6H9V4h2zm4-2h-2v2h2zM9 14h2v-2H9zm10-4V8h-2v2zm0 4v-2h-2v2zm-6 0h2v-2h-2zm6-10h-2v2h2zm-6 4V6h-2v2zm-6 2V8h2V6H7V4H5v16h2v-8h2v-2zm8 2h2v-2h-2zm-4-2v2h2v-2zM9 8v2h2V8zm4 2h2V8h-2zm2-4v2h2V6z"/></svg>

<svg width="24" height="24" viewBox="0 0 24 24" xmlns="http://www.w3.org/2000/svg" fill='currentColor'><path d="M11 6H9V4H11V6ZM15 4H13V6H15V4ZM9 14H11V12H9V14ZM19 10V8H17V10H19ZM19 14V12H17V14H19ZM13 14H15V12H13V14ZM19 4H17V6H19V4ZM13 8V6H11V8H13ZM7 10V8H9V6H7V4H5V20H7V12H9V10H7ZM15 12H17V10H15V12ZM11 10V12H13V10H11ZM9 8V10H11V8H9ZM13 10H15V8H13V10ZM15 6V8H17V6H15Z"/></svg>
